X:5
T:Da feiz hon tadou koz
C:P. Barnabe
M:6/8
L:1/8
K:D
F||SF2F (FE)F|A3-!breath!A2F|G2G (GF)E|F3-!breath!F2F|A2A G2F|
w:Da|feiz hon ta-*dou|koz,_ni|po-tred Breiz*I-|zel,_Ni|zal-c'ho mat a-|
E3 z2F|F2F (FE)F|A3-!breath!A2F|G2G (GF)E|F3-!breath!F2F|E2D F2E|
w:\-to; 'Vit|feiz hon ta-*dou|koz_hag|en-dro d'he*ba-|niel,_Ni|holl en em star-|
D3 z2A|A2A (AG)F|B3-B2F|G2G (GF)E|A3-A2D|D2D F2F|
w:\-do. Feiz|ka-ret hon*ta-|dou,_mor-|se ni ho*na-|c'ho,_Ken-|toc'h ni a var-|
E3 z2A|A2A A2A|A3 z2F|F2E F2E|HD3 "FIN":z2A,|F2G E2F|D3 z2A,|
w:\-vo Ken-|toc'h ni a var-|vo, Ken-|toc'h ni a var-|vo!|1.~D'ar|c'hou-a-dur bi-|han, e|
D2E F2G|F3 E zE|E2E E2F|G3-G2G|F2E F2D|A3 z2A,|F2G E2F|
w:ki-che-nig e|ga-vel, E|la-kit eur vamm|vat,_en|deiz e-vel en|noz; Er|boan hag en an-|
D3 z2A,|D2E F2G|F3 E2A|A2F G2B|A3-A2G|F2E F2E|D3-D zFS||
w:\-ken, hi|a daol bu-an|eur zell War|groaz zan-tel Je-|zuz,_he|sonj er ba-ra-|doz._Da|
